icons/outline/cog.svg

<svg width="24" height="24" viewBox="0 0 24 24" fill="none" xmlns="http://www.w3.org/2000/svg">
<path d="M4.50073 11.9993C4.50073 16.1414 7.8586 19.4993 12.0007 19.4993C16.1429 19.4993 19.5007 16.1414 19.5007 11.9993M4.50073 11.9993C4.50073 7.85712 7.8586 4.49925 12.0007 4.49925C16.1429 4.49926 19.5007 7.85712 19.5007 11.9993M4.50073 11.9993L3.00073 11.9993M19.5007 11.9993L21.0007 11.9993M19.5007 11.9993L12.0007 11.9993M3.54329 15.0774L4.95283 14.5644M19.0482 9.43411L20.4578 8.92108M5.1062 17.785L6.25527 16.8208M17.7459 7.17897L18.895 6.21479M7.50064 19.7943L8.25064 18.4952M15.7506 5.50484L16.5006 4.2058M10.4378 20.8633L10.6983 19.386M13.303 4.61393L13.5635 3.13672M13.5635 20.8633L13.303 19.3861M10.6983 4.61397L10.4378 3.13676M16.5007 19.7941L15.7507 18.4951M7.50068 4.20565L12.0007 11.9993M18.8952 17.7843L17.7461 16.8202M6.25542 7.17835L5.10635 6.21417M20.458 15.0776L19.0485 14.5646M4.95308 9.43426L3.54354 8.92123M12.0007 11.9993L8.25073 18.4944" stroke="#0F172A" stroke-width="1.5" stroke-linecap="round" stroke-linejoin="round"/>
</svg>

<svg xmlns="http://www.w3.org/2000/svg" fill="none" viewBox="0 0 24 24" stroke-width="1.5" stroke="currentColor" aria-hidden="true" data-slot="icon">
  <path stroke-linecap="round" stroke-linejoin="round" d="M4.5 12a7.5 7.5 0 0 0 15 0m-15 0a7.5 7.5 0 1 1 15 0m-15 0H3m16.5 0H21m-1.5 0H12m-8.457 3.077 1.41-.513m14.095-5.13 1.41-.513M5.106 17.785l1.15-.964m11.49-9.642 1.149-.964M7.501 19.795l.75-1.3m7.5-12.99.75-1.3m-6.063 16.658.26-1.477m2.605-14.772.26-1.477m0 17.726-.26-1.477M10.698 4.614l-.26-1.477M16.5 19.794l-.75-1.299M7.5 4.205 12 12m6.894 5.785-1.149-.964M6.256 7.178l-1.15-.964m15.352 8.864-1.41-.513M4.954 9.435l-1.41-.514M12.002 12l-3.75 6.495"/>
</svg>
